X:1
T:Standin In The Need of Prayer
T:He's the lily of the valley
T:Copyright 1881 by The Riverside Press
T:Rodeheaver's Plantation Melodies
T:Rodeheaver's Plantation Melodies
Z:Rodeheaver's Plantation Melodies
%%score [ 1 2 3 4 ]
L:1/8
Q:1/4=100
M:4/4
K:F
V:1 treble nm="Soprano" snm="S."
V:2 treble nm="Alto" snm="A."
V:3 bass nm="Tenor" snm="T."
V:4 bass nm="Bass" snm="B."
V:1
 CC | F F3 A3 G | F2 D4 z2 | F4 G4 | A6 CC | F F3 A3 G | F2 D4 z2 | F4 G4 | F6 || A2 | %10
 B2 B2 B2 B2 | A2 G2 F4 | c4 d4 | c6 A2 | B2 B2 B2 B2 | A2 G2 F4 | F4 G4 | F6 |] %18
V:2
 CC | F F3 A3 G | F2 D4 z2 | F4 E4 | F6 CC | F F3 A3 G | F2 D4 z2 | F4 E4 | F6 || A2 | %10
w: He's the|li- ly of the|val- ley,|Oh my|Lord. He's the|li- ly of the|val- ley|Oh my|Lord.|King|
 B2 B2 B2 B2 | A2 G2 F4 | F4 F4 | F6 A2 | B2 B2 B2 B2 | A2 G2 F4 | F4 E4 | F6 |] %18
w: Je- sus in the|cha- riot rides.|Oh my|Lord. With|four white hor- ses|side by side.|Oh my|Lord.|
V:3
 C,C, | F, F,3 A,3 G, | F,2 D,4 z2 | A,4 C4 | C6 C,C, | F, F,3 A,3 G, | F,2 D,4 z2 | A,4 B,4 | %8
 A,6 || A,2 | B,2 B,2 B,2 B,2 | A,2 G,2 F,4 | A,4 B,4 | A,6 A,2 | B,2 B,2 B,2 B,2 | A,2 G,2 F,4 | %16
 A,4 B,4 | A,6 |] %18
V:4
 C,C, | F, F,3 A,3 G, | F,2 D,4 z2 | F,4 C,4 | F,6 C,C, | F, F,3 A,3 G, | F,2 D,4 z2 | C,4 C,4 | %8
 F,6 || A,2 | B,2 B,2 B,2 B,2 | A,2 G,2 F,4 | F,4 B,,4 | F,6 A,2 | B,2 B,2 B,2 B,2 | A,2 G,2 F,4 | %16
 C,4 C,4 | F,6 |] %18

